X: 94
T: Au pied d'un saule
C: Maria Szymanowska
%%abc-version 2.0
%%abcx-abcm2ps-target-version 5.9.1 (29 Sep 2008)
%%abc-creator hum2abc beta
%%abcx-conversion-date 2021/10/04 07:38:42
%%abc-edited-by Andrzej Borzym
%%abc-edited-by Katarzyna Serwa
%%abcx-initial-encoding-date 2021-07-27
%%humdrum-veritas 2059881440
%%humdrum-veritas-data 3288077187
%%linebreak <none>
%%barnumbers 0
L: 1/4
M: C
N: Derived from pl-kozmzk--mzk-m-33--002_szymanowska-maria--au-pied-d-un-saule.krn
Q: "Lento ed espressivo"
V: 1 clef=treble
V: 2 clef=treble
V: 3 clef=bass
K: C
[V:1] z// [I:setbarnb 1]| 
[V:2] [e//c//A//E//] | 
[V:3] [A,,//A,,,//] | 
[V:1] z4 | 
[V:2] [ecAE]>>[cAEC][c7//A7//E7//C7//][A//E//C//A,//] | 
[V:3] [A,,A,,,]>>[A,,A,,,][A,,7//A,,,7//][A,,//A,,,//] | 
[V:1] !fermata!z4 | 
[V:2] [A4E4C4A,4] | 
[V:3] [A,,4A,,,4] | 
[V:1] e2c3/B/ | 
[V:2] E2C3/B,/ | 
[V:3] C2A,3/E,/ | 
[V:1] A7/A/ | 
[V:2] A,7/A,/ | 
[V:3] F,7/F,/ | 
[V:1] B>BA3/A/ | 
[V:2] B,>B,A,3/A,/ | 
[V:3] D,>D,!accent!^D,3/D,/ | 
[V:1] ^G2z2 | 
[V:2] ^G,2[G,2E,2] | 
[V:3] E,2D,2 | 
[V:1] A2B3/B/ | 
[V:2] A,2[B,2E,2] | 
[V:3] [E,2C,2]^G,,2 | 
[V:1] c2B3/B/ | 
[V:2] [C2E,2][B,2E,2] | 
[V:3] A,,2B,,2 | 
[V:1] ^Ag^fe | 
[V:2] ^A,2[e2^A2E2] | 
[V:3] [E,2C,2][C2C,2] | 
[V:1] ^f3/{/f} e//^d//dz | 
[V:2] [e2B2-^F2-][^dBF]z | 
[V:3] B,2B,,z | 
[V:1] !accent!c2B3/B/ | 
[V:2] [c2A2^F2][B3/G3/][B/G/] | 
[V:3] !accent!^D2E2 | 
[V:1] !accent!_B2A3/A/ | 
[V:2] [_B2G2E2][A3/^F3/][A/F/] | 
[V:3] !accent!^C2=D2 | 
[V:1] ^G2A3/A/ | 
[V:2] [^G2=F2D2][A3/F3/D3/][A/F/D/] | 
[V:3] B,2A,2 | 
[V:1] =B2-BB | 
[V:2] [B2-F2D2-][B2E2D2] | 
[V:3] ^G,2G,2 | 
[V:1] c2BA | 
[V:2] [c2E2C2][A2E2] | 
[V:3] A,2C,2 | 
[V:1] (3:2:6B c d d e f | 
[V:2] [B2F2D2][B2A2F2] | 
[V:3] D,2D,2 | 
[V:1] {/f}!accent!e2e/d/c/ B/ | 
[V:2] [c2A2E2][B2^G2D2] | 
[V:3] E,2E,,2 | 
[V:1] !fermata!A2z2 | 
[V:2] [A2E2C2]z2 | 
[V:3] !fermata!A,,2z2 | 
[V:1] B2AB | 
[V:2] [B4F4D4B,4] | 
[V:3] [G,4G,,4] | 
[V:1] !fermata!c7/^c/ | 
[V:2] [c3G3E3C3]z | 
[V:3] !fermata!C,3z | 
[V:1] d2g/f/ e/ d/ | 
[V:2] !arpeggio![d4B4G4D4] | 
[V:3] !arpeggio![G,4D,4B,,4G,,4] | 
[V:1] ^d2e!fermata!z | 
[V:2] !arpeggio![e3c3G3E3]!fermata!z | 
[V:3] !arpeggio![C3G,3E,3C,3]!fermata!z | 
[V:1] e{/g}fed | 
[V:2] [d4B4E4] | 
[V:3] [^G,4^G,,4] | 
[V:1] !accent!dc!accent!c_B | 
[V:2] z[cAE]z[_BFD] | 
[V:3] [A,A,,]z[D,D,,]z | 
[V:1] A2c/=B/ A/ ^G/ | 
[V:2] z[AEC]z[^GDB,] | 
[V:3] E,zE,,z | 
[V:1] !fermata!A2{/c2B2}A!fermata!z3// |]  
[V:2] [A3E3C3A,3]!fermata!z3// |]  
[V:3] !fermata!A,,3!fermata!z3// |]  


